X: 270
%
U:~=!turn!
T: Kenmore Lads
C:
O:Scotland
B:Keith Norman MacDonald : "The Skye collection of the best reels & strathspeys extant" : 1887
Z:Ralph Palmer
R:Jig
N:Country Dance
M:6/8
L:1/8
K:G
B/A/ | {/F}G>Bd gdB | {Bc}d2 d d2 B | {/F}GBd gdB | {cB}A2 A A2 B | {/F}G>Bd gdc | {/^c}def gfe | {/^c}d>cB c>BA | {/F}G2 G G2 ::
b/a/ | {/f}g2 d edB | {/^c}d2 d (dba) | {/f}g2 d edB | {cB}A2 A (Aba) | {/f}g2 d edB | {/^c}def gfe | {/^c}dec BcA | {/F}G2 G G2 :|


